img/icons/corp2/5.svg

<svg width="55" height="55" viewBox="0 0 55 55" fill="none" xmlns="http://www.w3.org/2000/svg">
<path d="M49.4079 54.9998V28.6419L34.3494 37.1953V28.6419L19.098 37.3066H16.6585L15.1725 18.7114H10.4909L9.0049 37.3066H6.2998V54.9998H49.4079Z" fill="#343434"/>
<path d="M10.4902 17.8377H15.1718C15.1718 17.8377 20.8489 17.387 29.4321 12.2249C36.2624 8.11663 34.0176 4.65476 40.6928 0.0876987C32.3495 -0.638681 31.3163 3.31953 29.022 5.60243C26.7276 7.88659 18.6356 3.4608 12.9516 9.11806C8.62356 13.4263 10.4902 17.8377 10.4902 17.8377Z" fill="#343434"/>
</svg>

<svg width="55" height="55" fill="none" xmlns="http://www.w3.org/2000/svg"><path d="M49.408 55V28.642l-15.059 8.553v-8.553l-15.251 8.665h-2.44L15.172 18.71h-4.681L9.005 37.307H6.3V55h43.108zM10.49 17.838h4.682s5.677-.451 14.26-5.613c6.83-4.108 4.586-7.57 11.26-12.137-8.343-.727-9.376 3.232-11.67 5.514-2.294 2.285-10.386-2.141-16.07 3.516-4.328 4.308-2.462 8.72-2.462 8.72z" fill="#343434"/></svg>
